X:1
T:Title
%%score { 1 | 2 }
L:1/8
M:3/4
K:Eb
V:1 treble nm="Grand Piano"
V:2 bass 
V:1
 z2 z2[Q:1/4=100] EF | G2 [GB]2 [FA][Ac] | [GB]2 G2 EF |[M:2/4] G2 [GB]2 |[M:1/4] [FA][EG] | %5
[M:2/4] [DF]4 |[M:1/4] EF |[M:3/4] G2 [GB]2 [FA][Ac] | [GB]2 G2 EF |[M:2/4] G2 [GB]2 | %10
[M:1/4] [DA][DF] |[M:2/4] E4 |[M:1/4] G[GB] |[M:3/4] e2 e2 cB | [GB]2 [EG]2 [EG][GB] | e2 e2 cB | %16
[M:2/4] [GB]4 |[M:1/4] EF |[M:3/4] G2 [GB]2 [FA][Ac] | [GB]2 G2 EF |[M:2/4] G2 [GB]2 | %21
[M:1/4] [DA][DF] |[M:6/4] .E6 z6 |] %23
V:2
 z2 z2 [E,G,][E,A,E] | [E,B,E]2 [E,E]2 [E,E][E,E] | [E,E]2 [E,B,E]2 [E,G,][E,A,E] | %3
[M:2/4] [E,B,E]2 [E,E]2 |[M:1/4] [D,B,][E,B,] |[M:2/4] [B,,B,]4 |[M:1/4] [E,G,][E,A,E] | %7
[M:3/4] [E,B,E]2 [E,E]2 [E,E][E,E] | [E,E]2 [E,B,E]2 [E,G,][E,A,E] |[M:2/4] [E,B,E]2 [E,E]2 | %10
[M:1/4] [B,,B,][B,,A,] |[M:2/4] [E,G,]4 |[M:1/4] [E,B,E][E,B,] | %13
[M:3/4][K:treble] [A,CA]2 [A,CA]2 [A,EA][A,EG] | [E,E]2 [E,B,]2 [E,B,][E,B,] | %15
 [A,CA]2 [A,CA]2 [A,EA][A,EG] |[M:2/4][K:bass] [E,E]4 |[M:1/4] [E,G,][E,A,E] | %18
[M:3/4] [E,B,E]2 [E,E]2 [E,E][E,E] | [E,E]2 [E,B,E]2 [E,G,][E,A,E] |[M:2/4] [E,B,E]2 [E,E]2 | %21
[M:1/4] [B,,B,][B,,A,] |[M:6/4] .[E,G,]6 z6 |] %23

